static/img/open-source/oss.svg

<svg fill="none" viewBox=".04 .59 182.38 75.79" xmlns="http://www.w3.org/2000/svg"><rect fill="#f6effb" height="75.7946" rx="37.8973" width="182.379" x=".040649" y=".589188"/><g fill="#a334fb"><path d="m45.3095 25.6602c1.5567-1.5565 4.0911-1.5565 5.6478 0 1.5567 1.5564 1.5567 4.0903 0 5.6468-.9018.9016-2.1357 1.3096-3.3887 1.1293-.057-.0095-.1234-.0095-.1804 0-.3701-.0474-.7593 0-1.1295.1709-.5221.2372-.8923.6738-1.0726 1.1768-.1804.4935-.1709 1.0534.0664 1.5564 1.3384 2.8946.7214 6.3586-1.5377 8.6173s-5.7237 2.8756-8.6188 1.5375c-.5221-.2373-1.0821-.2468-1.5852-.057-.4936.1803-.9113.5505-1.1486 1.0629-.1518.3322-.2088.6739-.1898 1.0155-.0095.0664-.0095.1329 0 .1993.2088 1.2717-.2088 2.5719-1.1201 3.483-1.5567 1.5564-4.0911 1.5564-5.6478 0-.7594-.7592-1.1675-1.7557-1.1675-2.8281 0-1.063.4176-2.069 1.1675-2.8282.9018-.9016 2.1357-1.3097 3.3887-1.1294h.0664c.1329.0285.2658.0475.4082.0475.2943 0 .5885-.0569.8638-.1898.5126-.2373.8733-.6548 1.0631-1.1389.1898-.503.1898-1.0724-.0569-1.5944-1.3384-2.8945-.7215-6.3585 1.5377-8.6173 2.2591-2.2587 5.7237-2.8756 8.6188-1.5374.5126.2373 1.0821.2467 1.5757.0664s.9207-.5504 1.158-1.0629c.1804-.3986.2279-.8257.1614-1.2338v-.0095c-.2088-1.2717.2088-2.5719 1.1201-3.4829zm-3.9487 15.9439c1.7275-1.7273 1.7275-4.527 0-6.2542-1.7276-1.7273-4.5278-1.7273-6.2553 0-1.7276 1.7272-1.7276 4.5269 0 6.2542 1.7275 1.7272 4.5277 1.7272 6.2553 0zm-3.1609-29.8474c14.7602 0 26.7298 11.9674 26.7298 26.725s-11.9601 26.7346-26.7298 26.7346-26.7298-11.9675-26.7298-26.7346 11.9695-26.725 26.7298-26.725zm14.2476 21.0403c2.3636-2.3632 2.3636-6.1878 0-8.5509-2.3635-2.3631-6.1888-2.3631-8.5523 0-.8733.8731-1.4239 1.955-1.6517 3.0844-4.2809-1.6134-9.1978-.5884-12.4726 2.6858s-4.2999 8.1902-2.6768 12.4799c-1.139.2278-2.2211.7782-3.1039 1.6608-2.3635 2.3631-2.3635 6.1878 0 8.5509s6.1888 2.3631 8.5524 0c.8828-.8826 1.4428-1.9835 1.6611-3.1224 1.3289.4935 2.7147.7403 4.0911.7403 3.066 0 6.0939-1.1863 8.3436-3.4355 3.2558-3.2553 4.2904-8.1428 2.7052-12.423 1.1296-.2373 2.2212-.7877 3.1039-1.6703z"/><path d="m106.838 38.4288c0-9.3455-5.48-15.172-13.0371-15.172-7.5572 0-13.0376 5.8265-13.0376 15.172s5.4804 15.172 13.0376 15.172c7.5571 0 13.0371-5.8265 13.0371-15.172zm-3.461 0c0 7.6725-4.2111 11.8261-9.5761 11.8261s-9.5763-4.1536-9.5763-11.8261c0-7.6726 4.2113-11.8261 9.5763-11.8261s9.5761 4.1535 9.5761 11.8261z"/><path d="m129.005 31.0447h3.461c-.158-4.4564-4.268-7.7879-9.98-7.7879-5.653 0-10.095 3.2882-10.095 8.2494 0 3.9805 2.884 6.3457 7.499 7.6725l3.635 1.0384c3.115.8653 5.884 1.9614 5.884 4.9035 0 3.2306-3.115 5.365-7.211 5.365-3.519 0-6.634-1.5575-6.923-4.9035h-3.692c.346 4.8459 4.269 8.1341 10.615 8.1341 6.807 0 10.672-3.7497 10.672-8.5379 0-5.5381-5.249-7.3264-8.307-8.134l-3-.8077c-2.192-.5769-5.711-1.7306-5.711-4.9035 0-2.8267 2.596-4.9035 6.519-4.9035 3.577 0 6.288 1.7018 6.634 4.6151z"/><path d="m154.904 31.0447h3.461c-.159-4.4564-4.269-7.7879-9.98-7.7879-5.654 0-10.096 3.2882-10.096 8.2494 0 3.9805 2.885 6.3457 7.5 7.6725l3.634 1.0384c3.115.8653 5.884 1.9614 5.884 4.9035 0 3.2306-3.115 5.365-7.211 5.365-3.519 0-6.634-1.5575-6.922-4.9035h-3.692c.346 4.8459 4.269 8.1341 10.614 8.1341 6.808 0 10.673-3.7497 10.673-8.5379 0-5.5381-5.25-7.3264-8.307-8.134l-3-.8077c-2.192-.5769-5.711-1.7306-5.711-4.9035 0-2.8267 2.596-4.9035 6.518-4.9035 3.577 0 6.289 1.7018 6.635 4.6151z"/></g></svg>

<svg width="183" height="77" viewBox="0 0 183 77" fill="none" xmlns="http://www.w3.org/2000/svg">
<rect x="0.0406494" y="0.589188" width="182.379" height="75.7946" rx="37.8973" fill="#F6EFFB"/>
<path d="M45.3095 25.6602C46.8662 24.1037 49.4006 24.1037 50.9573 25.6602C52.514 27.2166 52.514 29.7505 50.9573 31.307C50.0555 32.2086 48.8216 32.6166 47.5686 32.4363C47.5116 32.4268 47.4452 32.4268 47.3882 32.4363C47.0181 32.3889 46.6289 32.4363 46.2587 32.6072C45.7366 32.8444 45.3664 33.281 45.1861 33.784C45.0057 34.2775 45.0152 34.8374 45.2525 35.3404C46.5909 38.235 45.9739 41.699 43.7148 43.9577C41.4557 46.2164 37.9911 46.8333 35.096 45.4952C34.5739 45.2579 34.0139 45.2484 33.5108 45.4382C33.0172 45.6185 32.5995 45.9887 32.3622 46.5011C32.2104 46.8333 32.1534 47.175 32.1724 47.5166C32.1629 47.583 32.1629 47.6495 32.1724 47.7159C32.3812 48.9876 31.9636 50.2878 31.0523 51.1989C29.4956 52.7553 26.9612 52.7553 25.4045 51.1989C24.6451 50.4397 24.237 49.4432 24.237 48.3708C24.237 47.3078 24.6546 46.3018 25.4045 45.5426C26.3063 44.641 27.5402 44.2329 28.7932 44.4132C28.8122 44.4132 28.8312 44.4132 28.8596 44.4132C28.9925 44.4417 29.1254 44.4607 29.2678 44.4607C29.5621 44.4607 29.8563 44.4038 30.1316 44.2709C30.6442 44.0336 31.0049 43.6161 31.1947 43.132C31.3845 42.629 31.3845 42.0596 31.1378 41.5376C29.7994 38.6431 30.4163 35.1791 32.6755 32.9203C34.9346 30.6616 38.3992 30.0447 41.2943 31.3829C41.8069 31.6202 42.3764 31.6296 42.87 31.4493C43.3636 31.269 43.7907 30.8989 44.028 30.3864C44.2084 29.9878 44.2559 29.5607 44.1894 29.1526V29.1431C43.9806 27.8714 44.3982 26.5712 45.3095 25.6602ZM41.3608 41.6041C43.0883 39.8768 43.0883 37.0771 41.3608 35.3499C39.6332 33.6226 36.833 33.6226 35.1055 35.3499C33.3779 37.0771 33.3779 39.8768 35.1055 41.6041C36.833 43.3313 39.6332 43.3313 41.3608 41.6041ZM38.1999 11.7567C52.9601 11.7567 64.9297 23.7241 64.9297 38.4817C64.9297 53.2393 52.9696 65.2163 38.1999 65.2163C23.4302 65.2163 11.4701 53.2488 11.4701 38.4817C11.4701 23.7146 23.4396 11.7567 38.1999 11.7567ZM52.4475 32.797C54.8111 30.4338 54.8111 26.6092 52.4475 24.2461C50.084 21.883 46.2587 21.883 43.8952 24.2461C43.0219 25.1192 42.4713 26.2011 42.2435 27.3305C37.9626 25.7171 33.0457 26.7421 29.7709 30.0163C26.4961 33.2905 25.471 38.2065 27.0941 42.4962C25.9551 42.724 24.873 43.2744 23.9902 44.157C21.6267 46.5201 21.6267 50.3448 23.9902 52.7079C26.3537 55.071 30.179 55.071 32.5426 52.7079C33.4254 51.8253 33.9854 50.7244 34.2037 49.5855C35.5326 50.079 36.9184 50.3258 38.2948 50.3258C41.3608 50.3258 44.3887 49.1395 46.6384 46.8903C49.8942 43.635 50.9288 38.7475 49.3436 34.4673C50.4732 34.23 51.5648 33.6796 52.4475 32.797Z" fill="#A334FB"/>
<path d="M106.838 38.4288C106.838 29.0833 101.358 23.2568 93.8009 23.2568C86.2437 23.2568 80.7633 29.0833 80.7633 38.4288C80.7633 47.7743 86.2437 53.6008 93.8009 53.6008C101.358 53.6008 106.838 47.7743 106.838 38.4288ZM103.377 38.4288C103.377 46.1013 99.1659 50.2549 93.8009 50.2549C88.4359 50.2549 84.2246 46.1013 84.2246 38.4288C84.2246 30.7562 88.4359 26.6027 93.8009 26.6027C99.1659 26.6027 103.377 30.7562 103.377 38.4288Z" fill="#A334FB"/>
<path d="M129.005 31.0447H132.466C132.308 26.5883 128.198 23.2568 122.486 23.2568C116.833 23.2568 112.391 26.545 112.391 31.5062C112.391 35.4867 115.275 37.8519 119.89 39.1787L123.525 40.2171C126.64 41.0824 129.409 42.1785 129.409 45.1206C129.409 48.3512 126.294 50.4856 122.198 50.4856C118.679 50.4856 115.564 48.9281 115.275 45.5821H111.583C111.929 50.428 115.852 53.7162 122.198 53.7162C129.005 53.7162 132.87 49.9665 132.87 45.1783C132.87 39.6402 127.621 37.8519 124.563 37.0443L121.563 36.2366C119.371 35.6597 115.852 34.506 115.852 31.3331C115.852 28.5064 118.448 26.4296 122.371 26.4296C125.948 26.4296 128.659 28.1314 129.005 31.0447Z" fill="#A334FB"/>
<path d="M154.904 31.0447H158.365C158.206 26.5883 154.096 23.2568 148.385 23.2568C142.731 23.2568 138.289 26.545 138.289 31.5062C138.289 35.4867 141.174 37.8519 145.789 39.1787L149.423 40.2171C152.538 41.0824 155.307 42.1785 155.307 45.1206C155.307 48.3512 152.192 50.4856 148.096 50.4856C144.577 50.4856 141.462 48.9281 141.174 45.5821H137.482C137.828 50.428 141.751 53.7162 148.096 53.7162C154.904 53.7162 158.769 49.9665 158.769 45.1783C158.769 39.6402 153.519 37.8519 150.462 37.0443L147.462 36.2366C145.27 35.6597 141.751 34.506 141.751 31.3331C141.751 28.5064 144.347 26.4296 148.269 26.4296C151.846 26.4296 154.558 28.1314 154.904 31.0447Z" fill="#A334FB"/>
</svg>
